X: 1
T:The Reed In the Wheelwell  "1998.3"
M:3/4
L:1/8
Q:80
C:Mike Green, 1996
S:Reel
K:HP
|: {g}f3/2B/2{G}B3/2A/2{g}B2|
{g}f3/2B/2{G}B3/2A/2{g}B3/2d/2|
{g}f3/2B/2{G}B3/2A/2{g}B3/2d/2|  !
{g}c3/2{d}A/2{e}A3/2B/2{g}c3/2e/2:| [|
{g}A3/2d/2{gdedG}d2a2|
A3/2d/2{G}d3/2e/2{g}c3/2e/2|  !
{g}A3/2d/2{gdedG}d2a3/2e/2|
{g}c3/2B/2{g}A3/2B/2{g}c3/2e/2|
{g}A3/2d/2{gdedG}d2a2|  !
A3/2d/2{G}d3/2e/2{g}c3/2e/2|
{g}A3/2d/2{gdedG}d2a3/2e/2|
{g}c3/2B/2{g}A3/2B/2{g}c3/2e/2|  !
{g}d2-d2-d2|]
